svg/fluentui-system-icons/ic_fluent_document_dismiss_16_filled.svg

<svg width="16" height="16" viewBox="0 0 16 16" fill="none" xmlns="http://www.w3.org/2000/svg">
<path d="M8.9997 4.5V1H5.4997C4.67128 1 3.9997 1.67157 3.9997 2.5V5.20703C4.47653 5.07217 4.97969 5 5.4997 5C8.53727 5 10.9997 7.46243 10.9997 10.5C10.9997 12.3602 10.0763 14.0046 8.66278 15H12.4997C13.3281 15 13.9997 14.3284 13.9997 13.5V6H10.4997C9.67128 6 8.9997 5.32843 8.9997 4.5ZM9.9997 4.5V1.25L13.7497 5H10.4997C10.2236 5 9.9997 4.77614 9.9997 4.5ZM2.31802 7.31802C0.56066 9.07538 0.56066 11.9246 2.31802 13.682C4.07538 15.4393 6.92462 15.4393 8.68198 13.682C10.4393 11.9246 10.4393 9.07538 8.68198 7.31802C6.92462 5.56066 4.07538 5.56066 2.31802 7.31802ZM7.26777 12.2678C7.0725 12.463 6.75592 12.463 6.56066 12.2678L5.5 11.2071L4.43934 12.2678C4.24408 12.463 3.9275 12.463 3.73223 12.2678C3.53697 12.0725 3.53697 11.7559 3.73223 11.5607L4.79289 10.5L3.73223 9.43934C3.53697 9.24408 3.53697 8.92749 3.73223 8.73223C3.9275 8.53697 4.24408 8.53697 4.43934 8.73223L5.5 9.79289L6.56066 8.73223C6.75592 8.53697 7.0725 8.53697 7.26777 8.73223C7.46303 8.9275 7.46303 9.24408 7.26777 9.43934L6.20711 10.5L7.26777 11.5607C7.46303 11.7559 7.46303 12.0725 7.26777 12.2678Z" fill="#212121"/>
</svg>

<svg xmlns="http://www.w3.org/2000/svg" width="16" height="16"><path d="M9 4.5V1H5.5A1.5 1.5 0 0 0 4 2.5v2.707A5.5 5.5 0 0 1 8.663 15H12.5a1.5 1.5 0 0 0 1.5-1.5V6h-3.5A1.5 1.5 0 0 1 9 4.5Zm1 0V1.25L13.75 5H10.5a.5.5 0 0 1-.5-.5ZM2.318 7.318a4.5 4.5 0 1 0 6.364 6.364 4.5 4.5 0 0 0-6.364-6.364Zm4.95 4.95a.5.5 0 0 1-.707 0L5.5 11.208l-1.06 1.06a.5.5 0 0 1-.708-.707l1.06-1.061-1.06-1.06a.5.5 0 0 1 .707-.708L5.5 9.792l1.06-1.06a.5.5 0 0 1 .708.707L6.208 10.5l1.06 1.06a.5.5 0 0 1 0 .708Z"/></svg>
